<?xml version="1.0" encoding="UTF-8"?>
<map version="1.10" tiledversion="1.11.0" orientation="isometric" renderorder="right-down" width="20" height="20" tilewidth="256" tileheight="128" infinite="0" backgroundcolor="#060606" nextlayerid="22" nextobjectid="180">
 <tileset firstgid="1" source="../../Tiled/Ground.tsx"/>
 <tileset firstgid="90" source="../../Tiled/Paving.tsx"/>
 <tileset firstgid="105" source="../../Tiled/WallSolid.tsx"/>
 <tileset firstgid="163" source="../../Tiled/Nature.tsx"/>
 <tileset firstgid="177" source="../../Tiled/WallOpening.tsx"/>
 <tileset firstgid="261" source="../../Tiled/Clutter.tsx"/>
 <tileset firstgid="293" source="../../Tiled/Roof.tsx"/>
 <tileset firstgid="335" source="../Tiled/WoodStructure.tsx"/>
 <tileset firstgid="344" source="../../Tiled/Arch.tsx"/>
 <tileset firstgid="356" source="../../Tiled/Animated.tsx"/>
 <tileset firstgid="376" source="../../Tiled/Blocks.tsx"/>
 <tileset firstgid="402" source="../../Tiled/Overlay.tsx"/>
 <layer id="20" name="Lava" width="20" height="20">
  <data encoding="csv">
0,0,0,0,0,0,0,0,0,0,0,0,0,0,0,0,0,0,0,0,
0,0,0,0,0,0,0,0,0,0,0,0,0,0,0,0,0,0,0,0,
0,0,0,0,0,0,0,0,0,0,0,0,0,0,0,0,0,0,0,0,
0,0,0,0,0,0,0,0,0,0,0,0,0,0,0,0,0,0,0,0,
0,0,0,0,0,0,0,0,0,0,0,0,0,0,0,0,0,0,0,0,
0,0,0,0,0,0,0,0,0,0,0,0,0,0,0,0,0,0,0,0,
0,0,0,0,0,0,0,0,0,0,0,0,0,0,0,0,0,0,0,0,
0,0,0,0,0,0,0,0,0,0,0,0,0,0,0,0,0,0,0,0,
0,0,0,0,0,0,0,0,0,0,0,0,0,0,0,0,0,0,0,0,
0,0,0,0,0,0,0,0,0,0,0,0,0,0,0,0,0,0,0,0,
0,0,0,0,0,0,0,0,0,0,0,0,0,0,0,0,0,0,0,0,
0,0,0,0,0,0,0,0,0,0,0,0,0,0,0,0,0,0,0,0,
0,0,0,0,0,0,0,87,0,0,0,0,0,0,0,0,0,0,0,0,
0,0,0,0,0,0,87,87,0,0,0,0,0,0,0,0,0,0,0,0,
0,0,0,0,0,0,87,87,0,0,0,0,0,0,0,0,0,0,0,0,
0,0,0,0,0,0,87,87,0,0,0,0,0,0,0,0,0,0,0,0,
0,0,0,0,0,0,87,87,0,0,0,0,0,0,0,0,0,0,0,0,
0,0,0,0,0,0,87,87,0,0,0,0,0,0,0,0,0,0,0,0,
0,0,0,0,0,0,0,0,0,0,0,0,0,0,0,0,0,0,0,0,
0,0,0,0,0,0,0,0,0,0,0,0,0,0,0,0,0,0,0,0
</data>
 </layer>
 <layer id="21" name="Under" width="20" height="20">
  <data encoding="csv">
0,0,0,0,0,0,0,0,0,0,0,0,0,0,0,0,0,0,0,0,
0,0,0,0,0,0,0,0,0,0,0,0,0,0,0,0,0,0,0,0,
0,0,0,0,0,0,0,0,0,0,0,0,0,0,0,0,0,0,0,0,
0,0,0,0,0,0,0,0,0,0,0,0,0,0,0,0,0,0,0,0,
0,0,0,0,0,0,0,0,0,0,0,0,0,0,0,0,0,0,0,0,
0,0,0,0,0,0,0,0,0,0,0,0,0,0,0,0,0,0,0,0,
0,0,0,0,0,0,0,0,0,0,0,0,0,0,0,0,0,0,0,0,
0,0,0,0,0,0,0,0,0,0,0,0,0,0,0,0,0,0,0,0,
0,0,0,0,0,0,0,0,0,0,0,0,0,0,0,0,0,0,0,0,
0,0,0,0,0,0,0,0,0,0,0,0,0,0,0,0,0,0,0,0,
0,0,0,0,0,0,0,0,0,0,0,0,0,0,0,0,0,0,0,0,
0,0,0,0,0,0,0,0,0,0,0,0,0,0,0,0,0,0,0,0,
0,0,0,0,0,0,396,355,355,0,0,0,0,0,0,0,0,0,0,0,
0,0,0,0,0,0,352,0,0,0,0,0,0,0,0,0,0,0,0,0,
0,0,0,0,0,0,352,0,0,0,0,0,0,0,0,0,0,0,0,0,
0,0,0,0,0,0,352,0,0,0,0,0,0,0,0,0,0,0,0,0,
0,0,0,0,0,0,352,0,0,0,0,0,0,0,0,0,0,0,0,0,
0,0,0,0,0,0,352,0,0,0,0,0,0,0,0,0,0,0,0,0,
0,0,0,0,0,0,352,0,0,0,0,0,0,0,0,0,0,0,0,0,
0,0,0,0,0,0,0,0,0,0,0,0,0,0,0,0,0,0,0,0
</data>
 </layer>
 <layer id="5" name="Paving" width="20" height="20">
  <data encoding="csv">
0,0,0,0,0,0,0,0,0,0,0,0,0,0,0,0,0,0,0,0,
0,0,0,0,0,0,0,0,0,0,0,0,0,0,0,0,0,0,0,0,
0,0,0,0,0,0,0,0,0,0,0,0,0,0,0,0,0,0,0,0,
0,0,0,0,0,0,0,0,0,0,0,0,0,0,0,0,0,0,0,0,
0,102,102,102,102,102,102,102,0,0,0,0,0,0,0,0,0,0,0,0,
0,102,0,0,0,0,0,102,102,102,102,102,102,102,102,0,0,0,0,0,
0,102,102,102,102,102,102,102,102,102,102,102,102,102,102,0,0,0,0,0,
0,0,102,102,0,0,0,0,102,102,102,102,102,102,102,0,0,0,0,0,
0,102,102,102,102,102,102,102,102,102,102,102,102,102,102,0,0,0,0,0,
0,102,102,102,102,102,102,102,102,102,102,102,102,102,102,0,0,0,0,0,
0,102,102,102,102,102,102,102,102,102,102,102,102,102,102,0,0,0,0,0,
0,102,102,102,102,102,102,102,102,102,102,102,102,102,102,0,0,0,0,0,
0,102,102,102,102,102,0,102,102,102,102,0,102,102,102,0,0,0,0,0,
0,102,102,102,102,102,102,0,0,102,102,0,102,102,102,0,0,0,0,0,
0,102,102,102,102,102,102,0,0,102,102,102,102,102,102,0,0,0,0,0,
0,102,102,102,102,102,102,0,0,102,102,102,102,102,102,0,0,0,0,0,
0,102,102,102,102,102,102,0,0,102,102,102,102,102,102,0,0,0,0,0,
0,102,102,102,102,0,102,0,0,102,102,102,102,102,102,0,0,0,0,0,
0,102,102,102,102,102,102,0,0,102,102,102,102,102,102,0,0,0,0,0,
0,102,102,102,102,102,102,102,102,102,102,102,102,102,102,0,0,0,0,0
</data>
 </layer>
 <layer id="11" name="Tile Layer 7" width="20" height="20">
  <data encoding="csv">
0,0,0,0,0,0,0,0,0,0,0,0,0,0,0,0,0,0,0,0,
0,0,0,0,0,0,0,0,0,0,0,0,0,0,0,0,0,0,0,0,
0,0,0,0,0,0,0,0,0,0,0,0,0,0,0,0,0,0,0,0,
0,0,0,0,0,0,0,0,0,0,0,0,0,0,0,0,0,0,0,0,
0,0,0,0,0,0,0,0,0,0,0,0,0,0,0,0,0,0,0,0,
0,0,0,0,0,0,0,0,0,0,0,0,0,0,0,0,0,0,0,0,
0,0,0,0,0,0,0,0,0,0,0,0,0,0,0,0,0,0,0,0,
0,0,0,0,0,0,0,0,0,0,0,0,0,0,0,0,0,0,0,0,
0,0,0,0,0,0,0,0,0,0,0,0,0,0,0,0,0,0,0,0,
0,0,0,0,0,0,0,0,0,0,0,0,0,0,0,0,0,0,0,0,
0,0,0,0,0,0,0,0,0,0,0,0,0,0,0,0,0,0,0,0,
0,0,0,0,0,0,0,0,0,0,0,0,0,0,0,0,0,0,0,0,
0,0,0,0,0,0,0,0,0,0,0,0,0,0,0,0,0,0,0,0,
0,0,0,0,0,0,0,0,0,0,0,0,0,0,0,0,0,0,0,0,
0,0,0,0,0,0,0,0,0,0,0,0,0,0,0,0,0,0,0,0,
0,0,0,0,0,0,0,0,0,0,0,0,0,0,0,0,0,0,0,0,
0,0,0,0,0,0,0,0,0,0,0,0,0,0,0,0,0,0,0,0,
0,0,0,0,0,0,0,0,0,0,0,0,0,0,0,0,0,0,0,0,
0,0,0,0,0,0,0,0,0,0,0,0,0,0,0,0,0,0,0,0,
0,0,0,0,0,0,0,0,0,0,0,0,0,0,0,0,0,0,0,0
</data>
 </layer>
 <objectgroup id="15" name="Splats">
  <object id="96" gid="404" x="1193.67" y="1768.33" width="256" height="129"/>
  <object id="97" gid="404" x="1094.33" y="1542.33" width="256" height="129"/>
  <object id="98" gid="404" x="1073.67" y="1627" width="256" height="129"/>
  <object id="101" gid="404" x="817.667" y="1077.67" width="256" height="129"/>
  <object id="102" gid="404" x="1233" y="2193" width="256" height="129"/>
  <object id="103" gid="404" x="1488.33" y="1761.67" width="256" height="129"/>
  <object id="104" gid="404" x="1733" y="1527.67" width="256" height="129"/>
  <object id="105" gid="404" x="1473.67" y="1155" width="256" height="129"/>
  <object id="106" gid="404" x="1288.33" y="1095" width="256" height="129"/>
  <object id="107" gid="404" x="1225" y="822.33" width="256" height="129"/>
  <object id="108" gid="404" x="446.333" y="1443.67" width="256" height="129"/>
  <object id="109" gid="404" x="455.667" y="1733" width="256" height="129"/>
  <object id="110" gid="404" x="451" y="1996.33" width="256" height="129"/>
  <object id="111" gid="404" x="465.667" y="2277.67" width="256" height="129"/>
  <object id="112" gid="404" x="825.667" y="1456.33" width="256" height="129"/>
  <object id="113" gid="404" x="717.667" y="2207" width="256" height="129"/>
  <object id="169" gid="409" x="1006.92" y="1847.75" width="199" height="148"/>
  <object id="170" gid="409" x="902.917" y="1882.42" width="199" height="148"/>
  <object id="171" gid="409" x="955.583" y="2024.42" width="199" height="148"/>
  <object id="172" gid="409" x="1000.25" y="2099.75" width="199" height="148"/>
  <object id="173" gid="409" x="950.25" y="2139.08" width="199" height="148"/>
  <object id="174" gid="409" x="932.917" y="2217.75" width="199" height="148"/>
  <object id="175" gid="409" x="906.917" y="2259.75" width="199" height="148"/>
  <object id="176" gid="409" x="1020.25" y="2237.08" width="199" height="148"/>
  <object id="177" gid="409" x="931.583" y="1632.42" width="199" height="148"/>
  <object id="178" gid="409" x="1025.58" y="1661.08" width="199" height="148"/>
  <object id="179" gid="409" x="1076.25" y="1719.75" width="199" height="148"/>
 </objectgroup>
 <objectgroup id="4" name="Border rocks">
  <object id="2" gid="2147483821" x="90" y="1042" width="512" height="512"/>
  <object id="3" gid="2147483821" x="81" y="1347" width="512" height="512"/>
  <object id="4" gid="2147483821" x="90" y="1754" width="512" height="512"/>
  <object id="5" gid="2147483821" x="66" y="2102" width="512" height="512"/>
  <object id="6" gid="2147483821" x="151" y="2465" width="512" height="512"/>
  <object id="7" gid="2147483821" x="135" y="685" width="512" height="512"/>
  <object id="135" gid="173" x="344.152" y="549.909" width="512" height="512"/>
  <object id="137" gid="173" x="649.394" y="570.364" width="512" height="512"/>
  <object id="138" gid="173" x="978.212" y="574.879" width="512" height="512"/>
  <object id="139" gid="173" x="1338.61" y="546.364" width="512" height="512"/>
  <object id="140" gid="173" x="1604.61" y="548.242" width="512" height="512"/>
 </objectgroup>
 <layer id="6" name="Walls" width="20" height="20">
  <data encoding="csv">
0,0,0,0,0,0,0,0,0,0,0,0,0,0,0,0,0,0,0,0,
0,0,0,0,0,0,0,0,0,0,0,0,0,0,0,0,0,0,0,0,
0,0,0,0,0,0,0,0,0,0,0,0,0,0,0,0,0,0,0,0,
0,0,0,0,0,0,0,0,0,0,0,0,0,0,0,0,0,0,0,0,
0,0,0,0,0,0,0,0,0,0,0,0,0,0,292,0,0,0,0,0,
0,0,139,141,141,141,141,141,141,141,140,141,140,0,0,0,0,0,0,0,
0,0,143,0,0,0,0,0,0,0,196,0,144,0,0,0,0,0,0,0,
0,0,143,141,139,225,141,141,143,0,144,0,144,0,0,0,0,0,0,0,
0,0,143,0,143,0,0,0,143,0,144,0,144,0,292,0,0,0,0,0,
0,0,143,0,143,0,0,0,141,141,140,0,144,0,0,0,0,0,0,0,
0,0,143,0,141,139,193,140,0,0,144,0,144,0,0,0,0,0,0,0,
0,0,143,0,0,0,0,196,0,0,144,0,196,0,0,0,0,0,0,0,
0,0,143,0,0,139,141,141,0,0,228,0,144,0,0,0,0,0,0,0,
0,0,143,0,0,143,0,0,0,0,144,0,144,0,0,0,0,0,0,0,
0,0,143,0,0,143,0,0,0,0,144,0,144,0,0,0,0,0,0,0,
0,0,143,0,0,143,0,0,0,0,144,0,144,0,292,0,0,0,0,0,
0,0,143,0,0,143,0,0,0,0,144,0,144,0,0,0,0,0,0,0,
0,0,143,0,0,143,0,0,0,0,144,0,144,0,0,0,0,0,0,0,
0,0,137,142,142,137,142,142,142,142,138,142,138,0,0,0,0,0,0,0,
0,0,0,0,0,0,0,0,0,0,0,0,0,0,0,0,0,0,0,0
</data>
 </layer>
 <objectgroup id="9" name="Objects">
  <object id="62" gid="381" x="385.333" y="1934.67" width="96" height="208"/>
  <object id="63" gid="381" x="394.667" y="2176" width="96" height="208"/>
  <object id="65" gid="381" x="1181.33" y="789.33" width="96" height="208"/>
  <object id="66" gid="381" x="409.333" y="1414.67" width="96" height="208"/>
  <object id="67" gid="381" x="401.333" y="1681.33" width="96" height="208"/>
  <object id="68" gid="2147483910" x="751.333" y="2011.33" width="192" height="160"/>
  <object id="72" gid="285" x="631.667" y="1062.33" width="192" height="150"/>
 </objectgroup>
 <objectgroup id="13" name="Objects2">
  <object id="71" gid="2147483939" x="521.833" y="961.5" width="31" height="67"/>
  <object id="76" gid="289" x="316" y="697.33" width="96" height="96"/>
  <object id="77" gid="289" x="326.67" y="1752" width="96" height="96"/>
  <object id="79" gid="356" x="604" y="2172" width="128" height="128"/>
  <object id="80" gid="356" x="622" y="1716.67" width="128" height="128"/>
  <object id="81" gid="356" x="346.667" y="2088" width="128" height="128"/>
  <object id="82" gid="356" x="341.333" y="1853.33" width="128" height="128"/>
  <object id="83" gid="356" x="342.667" y="1593.33" width="128" height="128"/>
  <object id="84" gid="356" x="381.333" y="1349.33" width="128" height="128"/>
  <object id="85" gid="356" x="996.667" y="1331.33" width="128" height="128"/>
  <object id="87" gid="2147484004" x="1100" y="748" width="128" height="128"/>
  <object id="88" gid="2147484004" x="482" y="635.33" width="128" height="128"/>
  <object id="89" gid="2147484004" x="844" y="612" width="128" height="128"/>
  <object id="90" gid="413" x="544.667" y="1444.67" width="42" height="39"/>
  <object id="91" gid="413" x="184" y="576" width="42" height="39"/>
  <object id="92" gid="413" x="427.333" y="823.33" width="42" height="39"/>
  <object id="93" gid="414" x="1198.58" y="1115.42" width="63" height="41"/>
  <object id="94" gid="414" x="985.917" y="1773.42" width="63" height="41"/>
  <object id="95" gid="414" x="673.917" y="1690.75" width="63" height="41"/>
  <object id="116" gid="403" x="771.25" y="2034.75" width="69" height="157"/>
  <object id="117" gid="403" x="1079.25" y="1140.08" width="69" height="157"/>
  <object id="118" gid="403" x="1458.58" y="1835.42" width="69" height="157"/>
  <object id="119" gid="403" x="689.58" y="1669.75" width="69" height="157"/>
  <object id="168" gid="409" x="956.25" y="1730.42" width="199" height="148"/>
 </objectgroup>
 <objectgroup id="19" name="Splats2">
  <object id="141" gid="411" x="1717.67" y="1222.63" width="135" height="109"/>
  <object id="142" gid="411" x="1711.61" y="701.417" width="135" height="109"/>
  <object id="143" gid="411" x="1722.22" y="878.689" width="135" height="109"/>
  <object id="144" gid="411" x="1722.22" y="2418.08" width="135" height="109"/>
  <object id="145" gid="412" x="1701.75" y="1822.25" width="101" height="76"/>
  <object id="146" gid="412" x="1700.75" y="1987.25" width="101" height="76"/>
  <object id="147" gid="412" x="1694.25" y="1611.75" width="101" height="76"/>
  <object id="148" gid="412" x="1703.25" y="2238.75" width="101" height="76"/>
  <object id="149" gid="412" x="688.75" y="1713.25" width="101" height="76"/>
  <object id="150" gid="412" x="1453.25" y="2166.75" width="101" height="76"/>
  <object id="151" gid="412" x="1053.25" y="1636.75" width="101" height="76"/>
  <object id="152" gid="411" x="1716.25" y="1741.75" width="135" height="109"/>
  <object id="153" gid="411" x="1720.25" y="1935.75" width="135" height="109"/>
  <object id="154" gid="411" x="1708.25" y="2141.75" width="135" height="109"/>
  <object id="155" gid="411" x="1712.25" y="1399.75" width="135" height="109"/>
  <object id="156" gid="411" x="1698.75" y="1313.25" width="135" height="109"/>
  <object id="157" gid="411" x="1718.75" y="1007.25" width="135" height="109"/>
  <object id="158" gid="411" x="1741.25" y="1122.75" width="135" height="109"/>
  <object id="159" gid="411" x="1717.25" y="814.75" width="135" height="109"/>
  <object id="160" gid="411" x="1729.75" y="918.25" width="135" height="109"/>
  <object id="164" gid="416" x="1057" y="637" width="56" height="66"/>
  <object id="165" gid="416" x="1296" y="950" width="56" height="66"/>
  <object id="166" gid="416" x="1533" y="2201" width="56" height="66"/>
 </objectgroup>
 <layer id="10" name="Tile Layer 6" width="20" height="20">
  <data encoding="csv">
0,0,0,0,0,0,0,0,0,0,0,0,0,0,0,0,0,0,0,0,
0,0,0,0,0,0,0,0,0,0,0,0,0,0,0,0,0,0,0,0,
0,0,0,0,0,0,0,0,0,0,0,0,0,0,0,0,0,0,0,0,
0,0,0,0,0,0,0,0,0,0,0,0,0,0,0,0,0,0,0,0,
0,0,0,0,0,0,0,0,0,0,0,0,0,0,0,0,0,0,0,0,
0,0,0,0,0,0,0,0,0,0,0,0,0,0,0,0,0,0,0,0,
0,0,0,0,0,0,0,0,0,0,0,0,0,0,0,0,0,0,0,0,
0,0,0,0,0,0,0,0,0,0,0,0,0,0,0,0,0,0,0,0,
0,0,0,0,0,0,0,0,0,0,0,0,0,0,0,0,0,0,0,0,
0,0,0,0,0,0,0,0,0,0,0,0,0,0,0,0,0,0,0,0,
0,0,0,0,0,0,0,0,0,0,0,0,0,0,0,0,0,0,0,0,
0,0,0,0,0,0,0,0,0,0,0,0,0,0,0,0,0,0,0,0,
0,0,0,0,0,0,0,0,0,0,0,0,0,0,0,0,0,0,0,0,
0,0,0,0,0,0,0,0,0,0,0,0,0,0,0,0,0,0,0,0,
0,0,0,0,0,0,0,0,0,0,0,0,0,0,0,0,0,0,0,0,
0,0,0,0,0,0,0,0,0,0,0,0,0,0,0,0,0,0,0,0,
0,0,0,0,0,0,0,0,0,0,0,0,0,0,0,0,0,0,0,0,
0,0,0,0,0,0,0,0,0,0,0,0,0,0,0,0,0,0,0,0,
0,0,0,0,0,0,0,0,0,0,0,0,0,0,0,0,0,0,0,0,
0,0,0,0,0,0,0,0,0,0,0,0,0,0,0,0,0,0,0,0
</data>
 </layer>
</map>
