<?xml version="1.0" encoding="UTF-8"?>
<map version="1.10" tiledversion="1.11.0" orientation="isometric" renderorder="right-down" width="20" height="20" tilewidth="256" tileheight="128" infinite="0" backgroundcolor="#000000" nextlayerid="15" nextobjectid="208">
 <tileset firstgid="1" source="../../Tiled/Ground.tsx"/>
 <tileset firstgid="86" source="../../Tiled/Nature.tsx"/>
 <tileset firstgid="100" source="../../Tiled/Animated.tsx"/>
 <tileset firstgid="120" source="../../Tiled/WallSolid.tsx"/>
 <tileset firstgid="178" source="../../Tiled/WallOpening.tsx"/>
 <tileset firstgid="246" source="../Tiled/WoodStructure.tsx"/>
 <tileset firstgid="255" source="../../Tiled/Clutter.tsx"/>
 <tileset firstgid="287" source="../../Tiled/Arch.tsx"/>
 <tileset firstgid="299" source="../../Tiled/Roof.tsx"/>
 <tileset firstgid="341" source="../../Tiled/Paving.tsx"/>
 <tileset firstgid="356" source="../../Tiled/Overlay.tsx"/>
 <tileset firstgid="371" source="../../Tiled/Stairs.tsx"/>
 <tileset firstgid="383" source="../../Tiled/HalfWall.tsx"/>
 <layer id="1" name="Bedrock" width="20" height="20">
  <data encoding="csv">
3,3,3,3,3,3,3,3,3,3,3,3,3,3,3,3,3,3,3,3,
3,3,3,3,3,3,3,3,3,3,3,3,3,3,3,3,3,3,3,3,
3,3,3,3,3,3,3,3,3,3,3,3,3,3,3,3,3,3,3,3,
3,3,3,3,3,3,3,3,3,3,3,3,3,3,3,3,3,3,3,3,
3,3,3,3,3,3,3,3,3,3,3,3,3,3,3,3,3,3,3,3,
3,3,3,3,3,3,3,3,3,3,3,3,3,3,3,3,3,3,3,3,
3,3,3,3,3,3,3,3,3,3,3,3,3,3,3,3,3,3,3,3,
3,3,3,3,3,3,3,3,3,3,3,3,3,3,3,3,3,3,3,3,
3,3,3,3,3,3,3,3,3,3,3,3,3,3,3,3,3,3,3,3,
3,3,3,3,3,3,3,3,3,3,3,3,3,3,3,3,3,3,3,3,
3,3,3,3,3,3,3,3,3,3,3,3,3,3,3,3,3,3,3,3,
3,3,3,3,3,3,3,3,3,3,3,3,3,3,3,3,3,3,3,3,
3,3,3,3,3,3,3,3,3,3,3,3,3,3,3,3,3,3,3,3,
3,3,3,3,3,3,3,3,3,3,3,3,3,3,3,3,3,3,3,3,
3,3,3,3,3,3,3,3,3,3,3,3,3,3,3,3,3,3,3,3,
3,3,3,3,3,3,3,3,3,3,3,3,3,3,3,3,3,3,3,3,
3,3,3,3,3,3,3,3,3,3,3,3,3,3,3,3,3,3,3,3,
3,3,3,3,3,3,3,3,3,3,3,3,3,3,3,3,3,3,3,3,
3,3,3,3,3,3,3,3,3,3,3,3,3,3,3,3,3,3,3,3,
3,3,3,3,3,3,3,3,3,3,3,3,3,3,3,3,3,3,3,3
</data>
 </layer>
 <layer id="2" name="Wet" width="20" height="20">
  <data encoding="csv">
108,108,108,108,108,108,108,108,108,108,108,108,108,108,108,108,108,108,108,108,
108,108,108,108,108,108,108,108,108,108,108,108,108,108,108,108,108,108,108,108,
108,108,108,108,108,108,108,108,108,108,108,108,108,108,108,108,108,108,108,108,
108,108,108,108,108,108,108,108,108,108,108,108,108,108,108,108,108,108,108,108,
108,108,108,108,108,108,0,3,3,0,0,3,3,3,3,3,3,3,108,108,
108,108,108,108,108,3,0,0,0,0,0,3,3,3,3,3,3,3,108,108,
108,108,108,108,108,3,0,0,0,0,0,3,3,3,3,3,3,3,108,108,
108,108,108,108,108,108,0,0,0,0,0,3,3,3,3,3,3,3,108,0,
108,108,108,108,108,108,0,108,108,108,108,108,108,108,108,108,3,108,108,108,
108,108,108,108,108,108,108,108,108,108,108,108,108,108,108,108,108,108,108,108,
108,108,108,108,108,108,0,108,108,108,108,108,108,108,108,108,108,108,108,108,
108,108,108,108,108,108,0,0,0,0,0,0,0,0,0,0,0,0,0,0,
108,108,108,108,108,108,108,108,108,108,0,0,0,0,0,0,0,0,0,0,
108,108,108,108,108,108,108,108,108,108,0,0,0,0,0,0,0,0,108,108,
108,108,108,108,108,108,108,108,108,108,108,0,0,0,0,0,0,108,108,108,
108,108,108,108,108,108,108,108,108,108,108,108,108,108,108,108,108,108,108,108,
108,108,108,108,108,108,108,108,108,108,108,108,108,108,108,108,108,108,108,108,
108,108,108,108,108,108,108,108,108,108,108,108,108,108,108,108,108,108,108,108,
108,108,108,108,108,108,108,108,108,108,108,108,108,108,108,108,108,108,108,108,
108,108,108,108,108,108,108,108,108,108,108,108,108,108,108,108,108,108,108,108
</data>
 </layer>
 <layer id="3" name="Grass" width="20" height="20">
  <data encoding="csv">
5,5,5,5,5,5,5,5,5,5,5,5,5,5,5,5,5,5,5,5,
5,5,5,5,5,5,5,5,5,5,5,5,5,5,5,5,5,5,5,5,
5,5,5,5,5,5,5,5,5,5,5,5,5,5,5,5,5,5,5,5,
5,5,5,5,5,5,5,5,5,5,5,5,5,5,5,5,5,5,5,5,
5,5,5,5,5,5,5,5,5,5,0,5,5,5,5,5,5,5,5,5,
5,5,5,5,5,5,5,0,0,0,0,5,5,5,0,0,0,0,5,5,
5,5,5,5,5,5,0,0,0,0,0,5,0,0,0,0,0,0,5,5,
5,5,5,5,5,5,0,0,0,0,0,0,0,0,0,0,0,0,5,5,
0,62,5,5,5,5,0,5,5,5,5,5,5,5,5,5,5,5,5,0,
0,0,0,0,0,0,0,0,0,0,0,0,0,0,0,0,0,0,0,0,
0,85,5,5,5,5,0,5,5,5,5,5,5,5,5,5,5,5,5,0,
5,5,5,5,5,5,64,0,0,0,0,0,0,0,0,0,0,0,0,0,
5,5,5,5,5,5,5,5,5,5,5,5,5,5,5,5,5,5,0,0,
5,5,5,5,5,5,5,5,5,5,5,0,0,0,0,5,5,5,5,5,
5,5,5,5,5,5,5,5,5,5,5,64,0,0,0,0,0,5,5,5,
5,5,5,5,5,5,5,5,5,5,5,5,5,5,5,5,5,5,5,5,
5,5,5,5,5,5,5,5,5,5,5,5,5,5,5,5,5,5,5,5,
5,5,5,5,5,5,5,5,5,5,5,5,5,5,5,5,5,5,5,5,
5,5,5,5,5,5,5,5,5,5,5,5,5,5,5,5,5,5,5,5,
5,5,5,5,5,5,5,5,5,5,5,5,5,5,5,5,5,5,5,5
</data>
 </layer>
 <layer id="11" name="Paving" width="20" height="20">
  <data encoding="csv">
0,0,0,0,0,0,0,0,0,0,0,0,0,0,0,0,0,0,0,0,
0,0,0,0,0,0,0,0,0,0,0,0,0,0,0,0,0,0,0,0,
0,0,0,0,0,0,0,0,0,0,0,0,0,0,0,0,0,0,0,0,
0,0,0,0,0,0,0,0,0,0,0,0,0,0,0,0,0,0,0,0,
0,0,0,0,0,0,0,0,0,26,30,0,0,0,0,0,0,30,0,0,
0,0,0,0,0,0,0,0,0,0,24,0,0,0,0,0,0,24,0,0,
0,0,0,0,0,0,25,0,0,0,24,0,0,0,0,0,0,24,0,0,
0,0,0,0,0,0,29,27,27,27,28,0,0,27,27,27,27,28,0,0,
0,0,0,0,0,0,0,0,0,0,0,0,0,0,0,0,0,0,0,0,
0,0,0,0,0,0,0,0,0,0,0,0,0,0,0,0,0,0,0,0,
0,0,0,0,0,0,0,0,0,0,0,0,0,0,0,0,0,0,0,0,
0,0,0,0,0,0,0,0,0,0,0,0,0,0,0,0,0,0,0,0,
0,0,0,0,0,0,0,0,0,0,0,0,0,0,0,0,0,0,0,0,
0,0,0,0,0,0,0,0,0,0,0,25,2,0,0,0,0,0,0,0,
0,0,0,0,0,0,0,0,0,0,0,29,27,27,27,27,27,0,0,0,
0,0,0,0,0,0,0,0,0,0,0,0,0,0,0,0,0,0,0,0,
0,0,0,0,0,0,0,0,0,0,0,0,0,0,0,0,0,0,0,0,
0,0,0,0,0,0,0,0,0,0,0,0,0,0,0,0,0,0,0,0,
0,0,0,0,0,0,0,0,0,0,0,0,0,0,0,0,0,0,0,0,
0,0,0,0,0,0,0,0,0,0,0,0,0,0,0,0,0,0,0,0
</data>
 </layer>
 <objectgroup id="9" name="Frames">
  <object id="72" gid="247" x="1668" y="1761.33" width="328" height="295"/>
  <object id="74" gid="2147483894" x="1239.33" y="1388.67" width="132" height="147"/>
  <object id="75" gid="2147483894" x="1364.67" y="1383.33" width="132" height="147"/>
  <object id="76" gid="2147483894" x="1489.33" y="1384" width="132" height="147"/>
  <object id="77" gid="2147483894" x="1622.67" y="1378.67" width="132" height="147"/>
  <object id="78" gid="2147483894" x="1744.67" y="1371.33" width="132" height="147"/>
  <object id="79" gid="2147483894" x="1870" y="1374" width="132" height="147"/>
  <object id="80" gid="2147483894" x="1992.67" y="1371.33" width="132" height="147"/>
  <object id="81" gid="2147483894" x="2122" y="1372.67" width="132" height="147"/>
  <object id="82" gid="2147483894" x="2248.67" y="1371.33" width="132" height="147"/>
  <object id="84" gid="2147483894" x="2526.5" y="1782.83" width="132" height="147"/>
  <object id="85" gid="248" x="1516.67" y="915.333" width="16" height="200"/>
  <object id="88" gid="2147483916" x="1422.67" y="860" width="70" height="120"/>
  <object id="89" gid="298" x="1638.33" y="1756.33" width="206.667" height="189.333"/>
  <object id="90" gid="112" x="1615.67" y="1773" width="106.667" height="82.3333"/>
  <object id="109" gid="2147483922" x="884.167" y="1272.5" width="300" height="143"/>
  <object id="116" gid="246" x="764" y="1571.17" width="132" height="147"/>
  <object id="117" gid="246" x="761.333" y="1699.17" width="132" height="147"/>
  <object id="118" gid="246" x="758" y="1819.83" width="132" height="147"/>
  <object id="119" gid="246" x="762" y="1949.17" width="132" height="147"/>
 </objectgroup>
 <layer id="7" name="Houses" width="20" height="20">
  <data encoding="csv">
0,0,0,0,0,0,0,0,0,0,0,0,0,0,0,0,0,0,0,0,
0,0,0,0,0,0,0,0,0,0,0,0,0,0,0,0,0,0,0,0,
0,0,0,0,0,0,0,0,0,0,0,0,0,0,0,0,0,0,0,0,
0,0,0,0,0,0,0,0,0,0,0,0,0,0,0,0,0,0,0,0,
0,0,0,0,0,0,0,0,0,0,0,0,0,0,0,0,0,0,0,0,
0,0,0,0,0,0,0,122,124,241,0,0,122,124,124,124,123,0,0,0,
0,0,0,0,0,0,0,120,184,121,0,0,120,243,184,243,121,0,0,0,
0,0,0,0,0,0,0,0,0,0,0,0,0,0,0,0,0,0,0,0,
0,0,0,0,0,0,0,0,0,0,0,0,0,0,0,0,0,0,0,0,
0,0,0,0,0,0,0,0,0,0,0,0,0,0,0,0,0,0,0,0,
0,0,0,0,0,0,0,0,0,0,0,0,0,0,0,0,0,0,0,0,
0,0,0,0,0,0,0,0,0,0,0,0,0,0,0,0,0,0,0,0,
0,0,0,0,0,0,0,0,0,0,0,0,0,122,124,124,123,0,0,0,
0,0,0,0,0,0,0,0,0,0,0,0,0,120,184,243,121,0,0,0,
0,0,0,0,0,0,0,0,0,0,0,0,0,0,0,0,0,0,0,0,
0,0,0,0,0,0,0,0,0,0,0,0,0,0,0,0,0,0,0,0,
0,0,0,0,0,0,0,0,0,0,0,0,0,0,0,0,0,0,0,0,
0,0,0,0,0,0,0,0,0,0,0,0,0,0,0,0,0,0,0,0,
0,0,0,0,0,0,0,0,0,0,0,0,0,0,0,0,0,0,0,0,
0,0,0,0,0,0,0,0,0,0,0,0,0,0,0,0,0,0,0,0
</data>
 </layer>
 <objectgroup id="14" name="Object Layer 9">
  <object id="207" gid="376" x="2566" y="1050" width="256" height="256"/>
 </objectgroup>
 <objectgroup id="12" name="Clutter">
  <object id="111" gid="281" x="978.5" y="927.5" width="48" height="59"/>
  <object id="112" gid="281" x="1967.5" y="928.5" width="48" height="59"/>
  <object id="113" gid="2147483932" x="1676.25" y="979.75" width="207" height="183"/>
  <object id="114" gid="2147483932" x="1796.75" y="1873.25" width="207" height="183"/>
  <object id="115" gid="283" x="2049" y="1843" width="96" height="96"/>
  <object id="120" gid="358" x="914.333" y="1023.67" width="256" height="129"/>
  <object id="121" gid="358" x="1319" y="992.333" width="256" height="129"/>
  <object id="125" gid="365" x="175.917" y="1299.42" width="135" height="109"/>
  <object id="126" gid="365" x="172.583" y="1217.42" width="135" height="109"/>
  <object id="127" gid="365" x="165.25" y="1243.42" width="135" height="109"/>
  <object id="128" gid="365" x="167.917" y="1288.75" width="135" height="109"/>
  <object id="129" gid="365" x="167.917" y="1184.75" width="135" height="109"/>
  <object id="131" gid="363" x="180.25" y="1218.42" width="199" height="148"/>
  <object id="134" gid="363" x="-179.75" y="901.083" width="199" height="148"/>
  <object id="135" gid="363" x="-69.75" y="993.75" width="199" height="148"/>
  <object id="137" gid="363" x="112.25" y="1137.08" width="199" height="148"/>
  <object id="138" gid="363" x="101.583" y="1281.08" width="199" height="148"/>
  <object id="142" gid="295" x="2567.38" y="1289.29" width="256" height="256"/>
  <object id="151" gid="253" x="2323.33" y="871.333" width="350" height="320"/>
  <object id="181" gid="358" x="1952.33" y="1948.33" width="256" height="129"/>
  <object id="182" gid="358" x="1605.67" y="1945.67" width="256" height="129"/>
  <object id="183" gid="358" x="1508.33" y="1875" width="256" height="129"/>
  <object id="184" gid="358" x="2187.67" y="1966.33" width="256" height="129"/>
  <object id="185" gid="358" x="1827" y="1057.67" width="256" height="129"/>
  <object id="186" gid="358" x="1939" y="1052.33" width="256" height="129"/>
  <object id="187" gid="358" x="2302.5" y="1036.17" width="256" height="129"/>
  <object id="188" gid="358" x="2321" y="830.333" width="256" height="129"/>
  <object id="190" gid="295" x="2568.88" y="1408.45" width="256" height="256"/>
  <object id="191" gid="295" x="2568.88" y="1174.45" width="256" height="256"/>
  <object id="192" gid="399" x="2452.05" y="1303.29" width="256" height="512"/>
  <object id="193" gid="399" x="2452.71" y="1182.62" width="256" height="512"/>
  <object id="194" gid="399" x="2452.71" y="1059.95" width="256" height="512"/>
 </objectgroup>
 <objectgroup id="13" name="Object Layer 8">
  <object id="180" gid="2" x="2441.05" y="1166.95" width="256" height="129"/>
  <object id="195" gid="2" x="2440.38" y="1283.12" width="256" height="129"/>
  <object id="196" gid="2" x="2441.21" y="1050.29" width="256" height="129"/>
  <object id="203" gid="375" x="2572" y="1538" width="256" height="256"/>
 </objectgroup>
 <objectgroup id="10" name="Roofs">
  <object id="91" gid="307" x="1513" y="1659" width="262" height="221.667"/>
  <object id="92" gid="311" x="1637.33" y="1654.67" width="282" height="283"/>
  <object id="93" gid="311" x="1768.67" y="1651.33" width="282" height="283"/>
  <object id="94" gid="311" x="1894.67" y="1648" width="282" height="283"/>
  <object id="95" gid="311" x="2020.67" y="1650" width="282" height="283"/>
  <object id="96" gid="312" x="2040.33" y="1457.67" width="140" height="129"/>
  <object id="98" gid="311" x="874.67" y="757.66" width="282" height="283"/>
  <object id="99" gid="311" x="1000.67" y="754.33" width="282" height="283"/>
  <object id="100" gid="311" x="1126.67" y="756.33" width="282" height="283"/>
  <object id="101" gid="312" x="1147.83" y="566.5" width="140" height="129"/>
  <object id="102" gid="311" x="1776.33" y="762.663" width="282" height="283"/>
  <object id="103" gid="311" x="1902.33" y="759.333" width="282" height="283"/>
  <object id="104" gid="311" x="2028.33" y="761.333" width="282" height="283"/>
  <object id="105" gid="312" x="2049.33" y="575.67" width="140" height="129"/>
  <object id="106" gid="311" x="1653" y="760.5" width="282" height="283"/>
  <object id="107" gid="311" x="1524.33" y="761.167" width="282" height="283"/>
 </objectgroup>
 <objectgroup id="4" name="Backdrop">
  <object id="2" gid="2147483744" x="186.606" y="343.576" width="512" height="512"/>
  <object id="3" gid="2147483744" x="180.545" y="725.394" width="512" height="512"/>
  <object id="4" gid="2147483744" x="104.909" y="1118.85" width="512" height="512"/>
  <object id="5" gid="2147483744" x="185.697" y="1816" width="512" height="512"/>
  <object id="6" gid="2147483744" x="71.5758" y="1459.33" width="512" height="512"/>
  <object id="7" gid="2147483744" x="194.182" y="2202.67" width="512" height="512"/>
  <object id="8" gid="2147483744" x="242.667" y="2475.39" width="512" height="512"/>
 </objectgroup>
 <objectgroup id="5" name="Nature">
  <object id="17" gid="90" x="325.333" y="1313.33" width="84" height="83"/>
  <object id="18" gid="90" x="364" y="1157.33" width="84" height="83"/>
  <object id="19" gid="2147483738" x="280.667" y="1160.67" width="84" height="83"/>
  <object id="20" gid="90" x="242.667" y="1393.33" width="84" height="83"/>
  <object id="21" gid="86" x="136.667" y="1422" width="84" height="83"/>
  <object id="22" gid="2147483734" x="116" y="1474.67" width="84" height="83"/>
  <object id="23" gid="86" x="189.333" y="1561.33" width="84" height="83"/>
  <object id="24" gid="2147483734" x="120.667" y="1056.67" width="84" height="83"/>
  <object id="25" gid="86" x="173.333" y="1041.33" width="84" height="83"/>
  <object id="26" gid="86" x="115.333" y="1392.67" width="84" height="83"/>
  <object id="27" gid="86" x="274" y="1340.67" width="84" height="83"/>
  <object id="28" gid="2147483734" x="236.667" y="1100.67" width="84" height="83"/>
  <object id="29" gid="86" x="336" y="1161.33" width="84" height="83"/>
  <object id="30" gid="86" x="174.667" y="765.333" width="84" height="83"/>
  <object id="31" gid="86" x="160.667" y="912.667" width="84" height="83"/>
  <object id="32" gid="2147483734" x="221.333" y="644" width="84" height="83"/>
  <object id="33" gid="86" x="229.333" y="1750.67" width="84" height="83"/>
  <object id="34" gid="86" x="265.333" y="1677.33" width="84" height="83"/>
  <object id="35" gid="86" x="198.667" y="1856" width="84" height="83"/>
  <object id="36" gid="86" x="232" y="556" width="84" height="83"/>
  <object id="37" gid="86" x="167.333" y="423.333" width="84" height="83"/>
  <object id="38" gid="86" x="184" y="356" width="84" height="83"/>
  <object id="39" gid="86" x="242.667" y="2001.33" width="84" height="83"/>
  <object id="40" gid="86" x="190.667" y="1917.33" width="84" height="83"/>
  <object id="41" gid="89" x="471" y="2395" width="512" height="290"/>
  <object id="42" gid="89" x="482.333" y="2581" width="512" height="290"/>
  <object id="43" gid="89" x="361" y="2691.67" width="512" height="290"/>
  <object id="44" gid="89" x="373" y="167.667" width="512" height="290"/>
  <object id="45" gid="89" x="391.667" y="399.667" width="512" height="290"/>
  <object id="46" gid="89" x="585.667" y="197.667" width="512" height="290"/>
  <object id="47" gid="89" x="755" y="164.333" width="512" height="290"/>
  <object id="48" gid="89" x="418.333" y="2269" width="512" height="290"/>
  <object id="49" gid="99" x="180.583" y="1425.42" width="95" height="70"/>
  <object id="50" gid="98" x="204.25" y="881.083" width="33" height="32"/>
  <object id="51" gid="98" x="308.25" y="827.75" width="33" height="32"/>
  <object id="52" gid="98" x="230.917" y="595.75" width="33" height="32"/>
  <object id="53" gid="98" x="-19.75" y="681.083" width="33" height="32"/>
  <object id="54" gid="98" x="221.583" y="1538.42" width="33" height="32"/>
  <object id="55" gid="97" x="381.333" y="746.667" width="16" height="16"/>
  <object id="56" gid="97" x="225.333" y="809.333" width="16" height="16"/>
  <object id="57" gid="97" x="151.333" y="803.333" width="16" height="16"/>
  <object id="58" gid="97" x="148" y="953.333" width="16" height="16"/>
  <object id="59" gid="97" x="268" y="660" width="16" height="16"/>
  <object id="60" gid="97" x="112.667" y="1263.33" width="16" height="16"/>
  <object id="61" gid="97" x="126.667" y="1278.67" width="16" height="16"/>
  <object id="62" gid="97" x="298" y="1491.33" width="16" height="16"/>
  <object id="63" gid="97" x="324.667" y="1622" width="16" height="16"/>
  <object id="152" gid="86" x="923.333" y="1139.33" width="84" height="83"/>
  <object id="153" gid="86" x="940" y="1098.67" width="84" height="83"/>
  <object id="154" gid="2147483734" x="920.667" y="1171.33" width="57.3333" height="53.6667"/>
  <object id="155" gid="86" x="917" y="1289.67" width="80" height="61.6667"/>
  <object id="156" gid="86" x="944.667" y="1368.67" width="84" height="83"/>
  <object id="157" gid="86" x="951.333" y="1423.33" width="84" height="83"/>
  <object id="158" gid="86" x="1198.67" y="906.667" width="52" height="47"/>
  <object id="159" gid="86" x="902.667" y="904" width="62.6667" height="59"/>
  <object id="160" gid="2147483734" x="999.667" y="908.333" width="50.6667" height="40.3333"/>
  <object id="161" gid="2147483734" x="1162.33" y="905.667" width="58.6667" height="63"/>
  <object id="162" gid="86" x="1287.67" y="860.333" width="61.3333" height="51"/>
  <object id="163" gid="2147483734" x="1290.33" y="785.667" width="53.3333" height="48.3333"/>
  <object id="164" gid="86" x="2061.33" y="900" width="84" height="83"/>
  <object id="165" gid="2147483734" x="2122.67" y="897.333" width="57.3333" height="49.6667"/>
  <object id="166" gid="2147483734" x="2187.67" y="915" width="56" height="52.3333"/>
  <object id="167" gid="86" x="2114" y="1810" width="84" height="83"/>
  <object id="168" gid="98" x="1296.92" y="815.083" width="33" height="32"/>
  <object id="169" gid="98" x="1262.25" y="900.417" width="33" height="32"/>
  <object id="170" gid="98" x="1275.92" y="894.75" width="18.3333" height="25.3333"/>
  <object id="171" gid="98" x="878.917" y="886.417" width="33" height="32"/>
  <object id="172" gid="98" x="2050.25" y="907.083" width="33" height="32"/>
  <object id="173" gid="98" x="2158.92" y="910.417" width="33" height="32"/>
 </objectgroup>
 <objectgroup id="8" name="Nature2">
  <object id="64" gid="92" x="835.333" y="402" width="512" height="512"/>
  <object id="65" gid="92" x="1052.67" y="200.667" width="512" height="512"/>
  <object id="66" gid="92" x="772.667" y="2267.33" width="512" height="512"/>
  <object id="67" gid="92" x="712.667" y="2516.67" width="512" height="512"/>
  <object id="68" gid="93" x="1378" y="2435.33" width="512" height="512"/>
  <object id="69" gid="93" x="1457.33" y="300" width="512" height="512"/>
  <object id="70" gid="93" x="2404.67" y="1950" width="512" height="512"/>
  <object id="71" gid="93" x="2064.67" y="359.333" width="512" height="512"/>
  <object id="133" gid="363" x="-201.083" y="949.083" width="199" height="148"/>
  <object id="139" gid="363" x="-73.75" y="1091.08" width="199" height="148"/>
  <object id="136" gid="363" x="-2.41667" y="1030.42" width="199" height="148"/>
  <object id="132" gid="363" x="198.25" y="1301.75" width="199" height="148"/>
  <object id="130" gid="363" x="231.583" y="1268.42" width="199" height="148"/>
 </objectgroup>
 <objectgroup id="6" name="Object Layer 3" opacity="0.5">
  <object id="10" gid="104" x="149" y="1247" width="130" height="194"/>
  <object id="11" gid="104" x="23" y="1123" width="130" height="194"/>
  <object id="12" gid="104" x="-95" y="1003" width="130" height="194"/>
 </objectgroup>
</map>
